src/lib/packages/icons/src/assets/line/arrow-down-right-square.svg

<svg width="24" height="24" viewBox="0 0 24 24" fill="none" xmlns="http://www.w3.org/2000/svg">
<path d="M17.625 2.25H6.375C3.715 2.25 2.25 3.715 2.25 6.375V17.625C2.25 20.285 3.715 21.75 6.375 21.75H17.625C20.285 21.75 21.75 20.285 21.75 17.625V6.375C21.75 3.715 20.285 2.25 17.625 2.25ZM20.25 17.625C20.25 19.465 19.465 20.25 17.625 20.25H6.375C4.535 20.25 3.75 19.465 3.75 17.625V6.375C3.75 4.535 4.535 3.75 6.375 3.75H17.625C19.465 3.75 20.25 4.535 20.25 6.375V17.625ZM15.75 11V15C15.75 15.098 15.7299 15.1951 15.6919 15.2871C15.6159 15.4701 15.4701 15.6159 15.2871 15.6919C15.1951 15.7299 15.098 15.75 15 15.75H11C10.586 15.75 10.25 15.414 10.25 15C10.25 14.586 10.586 14.25 11 14.25H13.189L8.46899 9.53003C8.17599 9.23703 8.17599 8.76199 8.46899 8.46899C8.76199 8.17599 9.23703 8.17599 9.53003 8.46899L14.25 13.189V11C14.25 10.586 14.586 10.25 15 10.25C15.414 10.25 15.75 10.586 15.75 11Z" fill="currentColor"/>
</svg>

<svg xmlns="http://www.w3.org/2000/svg" width="24" height="24" fill="none"><path fill="currentColor" d="M17.625 2.25H6.375c-2.66 0-4.125 1.465-4.125 4.125v11.25c0 2.66 1.465 4.125 4.125 4.125h11.25c2.66 0 4.125-1.465 4.125-4.125V6.375c0-2.66-1.465-4.125-4.125-4.125Zm2.625 15.375c0 1.84-.785 2.625-2.625 2.625H6.375c-1.84 0-2.625-.785-2.625-2.625V6.375c0-1.84.785-2.625 2.625-2.625h11.25c1.84 0 2.625.785 2.625 2.625v11.25ZM15.75 11v4a.751.751 0 0 1-.75.75h-4a.75.75 0 0 1 0-1.5h2.189l-4.72-4.72A.75.75 0 1 1 9.53 8.469l4.72 4.72V11a.75.75 0 0 1 1.5 0Z"/></svg>
